svg/Filled/exit_filled.svg

<svg viewBox="0 0 24 24" xmlns="http://www.w3.org/2000/svg" width="24" height="24"><path d="M15.24 3.37c1.87 0 2.8 0 3.53.3a4 4 0 0 1 2.17 2.17c.3.73.3 1.66.3 3.53v5.26c0 1.87 0 2.8-.3 3.53a4 4 0 0 1-2.17 2.17c-.73.3-1.66.3-3.53.3s-2.8 0-3.53-.3a4 4 0 0 1-2.16-2.17c-.3-.73-.3-1.66-.3-3.53V12.9h5.59l-1.76 1.76a.9.9 0 0 0 1.27 1.27l3.3-3.3a.9.9 0 0 0 0-1.27l-3.3-3.3-.07-.06A.9.9 0 0 0 13 9.27l.07.07 1.76 1.76h-5.6V9.37c0-1.87 0-2.8.3-3.53a4 4 0 0 1 2.17-2.17c.74-.3 1.67-.3 3.53-.3m-6 9.53h-5a.9.9 0 0 1 0-1.8h5.01z"/></svg>

<svg viewBox="0 0 24 24" xmlns="http://www.w3.org/2000/svg" width="24" height="24"><path d="M15.24 3.37C17.11 3.37 18.04 3.37 18.77 3.67A4 4 0 0 1 20.94 5.84C21.24 6.57 21.24 7.5 21.24 9.37L21.24 14.63C21.24 16.5 21.24 17.43 20.94 18.16A4 4 0 0 1 18.77 20.33C18.04 20.63 17.11 20.63 15.24 20.63C13.37 20.63 12.44 20.63 11.71 20.33A4 4 0 0 1 9.55 18.16C9.25 17.43 9.25 16.5 9.25 14.63L9.25 12.9L14.84 12.9L13.08 14.66A.9 .9 0 0 0 14.35 15.93L17.65 12.63A.9 .9 0 0 0 17.65 11.36L14.28 8A.9 .9 0 0 0 13 9.27L14.83 11.1L9.23 11.1L9.23 9.37C9.23 7.5 9.23 6.57 9.53 5.84A4 4 0 0 1 11.7 3.67C12.44 3.37 13.37 3.37 15.23 3.37M9.23 12.9h-5a.9.9 0 0 1 0-1.8h5.01z"/></svg>
